PortableApps/LibreOfficePortable/App/libreoffice/help/media/icon-themes/cmd/lc_group.svg

<svg viewBox="0 0 24 24" xmlns="http://www.w3.org/2000/svg"><path d="m21 2v5h-7v-5zm-1 1h-5v3h5zm1 6v6h-7v-6zm-1 1h-5v4h5zm1 7v5h-7v-5zm-1 1h-5v3h5z" fill="#808080"/><path d="m20 3v3h-5v-3zm0 7v4h-5v-4zm0 8v3h-5v-3z" fill="#fff"/><path d="m5 9v2h-2v2h2v2h2v-2h2v-2h-2v-2z" fill="#76a797"/><path d="m6 3c-.554 0-1 .446-1 1v3c0 .554.446 1 1 1s1-.446 1-1v-2h4c.554 0 1-.446 1-1s-.446-1-1-1zm0 13c-.554 0-1 .446-1 1v3c0 .554.446 1 1 1h5c.554 0 1-.446 1-1s-.446-1-1-1h-4v-2c0-.554-.446-1-1-1z" fill="#4d82b8"/></svg>

<svg viewBox="0 0 24 24" xmlns="http://www.w3.org/2000/svg">
  <path
     style="fill:#808080"
     d="M 21,2 V 7 H 14 V 2 Z m -1,1 h -5 v 3 h 5 z m 1,6 v 6 H 14 V 9 Z m -1,1 h -5 v 4 h 5 z m 1,7 v 5 h -7 v -5 z m -1,1 h -5 v 3 h 5 z"
     />
  <path
     style="fill:#ffffff"
     d="M 20,3 V 6 H 15 V 3 Z m 0,7 v 4 h -5 v -4 z m 0,8 v 3 h -5 v -3 z"
     />
  <path
     style="fill:#76a797"
     d="m 5,9 v 2 H 3 v 2 h 2 v 2 H 7 V 13 H 9 V 11 H 7 V 9 Z"
     />
  <path
     style="fill:#4d82b8"
     d="M 6 3 C 5.446 3 5 3.446 5 4 L 5 7 C 5 7.554 5.446 8 6 8 C 6.554 8 7 7.554 7 7 L 7 5 L 11 5 C 11.554 5 12 4.554 12 4 C 12 3.446 11.554 3 11 3 L 6 3 z M 6 16 C 5.446 16 5 16.446 5 17 L 5 20 C 5 20.554 5.446 21 6 21 L 11 21 C 11.554 21 12 20.554 12 20 C 12 19.446 11.554 19 11 19 L 7 19 L 7 17 C 7 16.446 6.554 16 6 16 z "
     />
</svg>
